X:667
T:Engelska
T:efter Alfred Petersson, Nättraby, Blekinge (SvL, Band 18, nr 276)
S:Svenska Låtar Blekinge nr 276
N:Svenska Låtar, Band 18 nr 276
O:Nättraby, Blekinge
R:Engelska
C:Alfred Petersson
M:2/4
L:1/16
Q:1/4=100
Z:Konverterad till abc-format av  Olle Paulsson 05-01-03
K:F
uF2CF A2FA|c2Ac f2a2|vg2bg e2ge|c2de f2a2|
F2CF A2FA|c2Ac f2a2|g2bg e2ge|c2de f4:|
K:Bb
|:v[d3F3]c B2g2|f2e2 d2e2|cdcB A2g2|f2A2 B2F2|
dedc B2g2|f2e2 d2e2|cdcB A2g2|f2A2 B2 z2:|
(:musicend:)

(:music:)
